X: 534
T: Carleton House
R: jig
B: "Preston's Twenty Four Country Dances for the Year 1804", Tho. Preston, ed. p.227
F: http://imslp.org/wiki/24_Country_Dances_for_the_Year_1804_(Preston_(publisher),_Thomas)
M: 6/8
L: 1/8
K: Bb
|:\
BdB FDF | B3 F2B | c2d e2d | cdB ABc |\
BdB FDF | GED Ccd | dfB ecA | B3 B,3 :|
|:\
B,Bd fdB | Ace gec | dBf eca | bfe dec |\
BdB FDF | GED Cce | dfB ecA | B3 B,3 :|
% - - - - - - - - - - - - - - - - - - - - - - - - -
%%begintext align
%% Turn your Partr with the right hand, then with
%% he left, lead down the middle up again, 1st & 2d
%% Cu. promenade round & pousette.
%%endtext

%%sep 1 1 500
